symbols/web/desktop_mac/materialsymbolsrounded/desktop_mac_wght700grad200fill1_24px.svg

<svg xmlns="http://www.w3.org/2000/svg" height="24" width="24"><path d="M9.85 23.75q-1.15 0-1.587-1.025-.438-1.025.387-1.85l.625-.6H3.95q-1.275 0-2.187-.913Q.85 18.45.85 17.175V4.725q0-1.275.913-2.188.912-.912 2.187-.912h16.1q1.275 0 2.188.912.912.913.912 2.188v12.45q0 1.275-.912 2.187-.913.913-2.188.913h-5.325l.625.6q.825.825.388 1.85-.438 1.025-1.588 1.025Zm-5.6-9.95h15.5V5.025H4.25Zm0 0V5.025h15.5V13.8Z"/></svg>

<svg xmlns="http://www.w3.org/2000/svg" height="24" width="24"><path d="M9.85 23.75Q8.7 23.75 8.263 22.725Q7.825 21.7 8.65 20.875L9.275 20.275H3.95Q2.675 20.275 1.763 19.362Q0.85 18.45 0.85 17.175V4.725Q0.85 3.45 1.763 2.537Q2.675 1.625 3.95 1.625H20.05Q21.325 1.625 22.238 2.537Q23.15 3.45 23.15 4.725V17.175Q23.15 18.45 22.238 19.362Q21.325 20.275 20.05 20.275H14.725L15.35 20.875Q16.175 21.7 15.738 22.725Q15.3 23.75 14.15 23.75ZM4.25 13.8H19.75V5.025Q19.75 5.025 19.75 5.025Q19.75 5.025 19.75 5.025H4.25Q4.25 5.025 4.25 5.025Q4.25 5.025 4.25 5.025ZM4.25 13.8V5.025Q4.25 5.025 4.25 5.025Q4.25 5.025 4.25 5.025H19.75Q19.75 5.025 19.75 5.025Q19.75 5.025 19.75 5.025V13.8Z"/></svg>
